flip-to-back.svg

<svg fill="currentColor" viewBox="0 0 24 24"><path d="M15 17h2v-2h-2m0-10h2V3h-2M5 7H3v12a2 2 0 0 0 2 2h12v-2H5m14-2a2 2 0 0 0 2-2h-2m0-6h2V7h-2m0 6h2v-2h-2M9 17v-2H7a2 2 0 0 0 2 2m4-14h-2v2h2m6-2v2h2a2 2 0 0 0-2-2m-6 12h-2v2h2M9 3c-1.11 0-2 .89-2 2h2m0 6H7v2h2m0-6H7v2h2z"/></svg>

<svg  viewBox="0 0 24 24" fill="currentColor"><path  d="M15,17H17V15H15M15,5H17V3H15M5,7H3V19A2,2 0 0,0 5,21H17V19H5M19,17A2,2 0 0,0 21,15H19M19,9H21V7H19M19,13H21V11H19M9,17V15H7A2,2 0 0,0 9,17M13,3H11V5H13M19,3V5H21C21,3.89 20.1,3 19,3M13,15H11V17H13M9,3C7.89,3 7,3.89 7,5H9M9,11H7V13H9M9,7H7V9H9V7Z"/></svg>
